!!!OTL: 442. Fuer und wider
!!!COM: Karl Ludwig Fischer
!!!ODT: 1850 (um)
!!!ARE: Europa, Mitteleuropa, Deutschland
!!!SCT: B0442
!!!TXL: @@DE
!!!YEM: Copyright 1995, estate of Helmut Schaffrath.
**kern	**text
*ICvox	*
*Ivox	*
*clefG2	*
*M3/4	*
*k[b-e-]	*
*B-:	*
=1	=1
!LO:TX:a:t=Langſam.	!
{4.f	Wenn
8g	ich
4f	ein
=2	=2
2b-	Blümlein
8ddL	.
8ccJ	.
=3	=3
2.b-}	ſchau',
=4	=4
{4.f	wünſch'
8g	ich
4f	mir
=5	=5
2cc	ei-
8ee-L	-ne
8ddJ	.
=6	=6
2cc	Frau:
4r}	.
=7	=7
{4.b-	ſel-
8a	-ten
4g	blüht
=8	=8
4.cc	eins
8b-	al-
4a	-lein,
=9	=9
4g	müſſen
4g	.
4cc	bei-
=10	=10
4.a	-ſam-
8g	-men
4f}	ſein:
=11	=11
{2dd	Blümlein
8b-	.
8b-	der
=12	=12
2.g	Au'
=13	=13
2cc	hat
8.a	ei-
16a	-ne
=14	=14
2b-	Frau.
4r}	.
==	==
!!!AGN: Liebes - Lied, Frust
!!!GTL: Liebeslieder - Liebeslust
!!!ONB: ESAC (Essen Associative Code) Database: BOEHME
!!!AMT: simple triple
!!!AIN: vox
!!!EED: Helmut Schaffrath
!!!EEV: 1.0
!!Karl Ludwig Fischer um 1850.
!!@@COMMENT:"J. V. F. Castelli. 1819. Eine andere Mel. hat C. M. v. Weber komponirt."
!!@@END:
!!!Text: J. V. F. Castelli
!!!URL-scan: https://archive.org/details/BoehmeVtLieder1895/page/n357/mode/2up
!!!ENC: Anna Maria Matuszewska
!!!EEV: 2024/09/07
*-	*-
